src/film/film_curve_portra_400.spi1d
Version 1
From 0.0000000 1.0000000
Length 4096
Components 1
{
 0.0030728
 0.0029987
 0.0029268
 0.0028572
 0.0027898
 0.0027246
 0.0026615
 0.0026005
 0.0025415
 0.0024846
 0.0024296
 0.0023766
 0.0023255
 0.0022762
 0.0022288
 0.0021832
 0.0021393
 0.0020972
 0.0020567
 0.0020179
 0.0019808
 0.0019452
 0.0019113
 0.0018788
 0.0018479
 0.0018184
 0.0017904
 0.0017638
 0.0017385
 0.0017147
 0.0016921
 0.0016709
 0.0016510
 0.0016323
 0.0016148
 0.0015985
 0.0015834
 0.0015694
 0.0015566
 0.0015448
 0.0015341
 0.0015245
 0.0015159
 0.0015083
 0.0015017
 0.0014960
 0.0014913
 0.0014875
 0.0014846
 0.0014825
 0.0014814
 0.0014810
 0.0014815
 0.0014827
 0.0014847
 0.0014875
 0.0014910
 0.0014953
 0.0015002
 0.0015058
 0.0015121
 0.0015191
 0.0015266
 0.0015348
 0.0015436
 0.0015530
 0.0015629
 0.0015734
 0.0015845
 0.0015960
 0.0016081
 0.0016206
 0.0016337
 0.0016472
 0.0016611
 0.0016755
 0.0016904
 0.0017056
 0.0017213
 0.0017373
 0.0017537
 0.0017705
 0.0017876
 0.0018051
 0.0018229
 0.0018410
 0.0018595
 0.0018782
 0.0018973
 0.0019166
 0.0019362
 0.0019560
 0.0019761
 0.0019964
 0.0020170
 0.0020378
 0.0020588
 0.0020800
 0.0021014
 0.0021230
 0.0021448
 0.0021667
 0.0021888
 0.0022111
 0.0022336
 0.0022561
 0.0022788
 0.0023017
 0.0023246
 0.0023477
 0.0023709
 0.0023942
 0.0024176
 0.0024411
 0.0024647
 0.0024884
 0.0025121
 0.0025359
 0.0025598
 0.0025837
 0.0026077
 0.0026317
 0.0026558
 0.0026799
 0.0027041
 0.0027283
 0.0027525
 0.0027768
 0.0028011
 0.0028254
 0.0028497
 0.0028740
 0.0028983
 0.0029226
 0.0029469
 0.0029713
 0.0029956
 0.0030199
 0.0030442
 0.0030685
 0.0030927
 0.0031170
 0.0031412
 0.0031654
 0.0031895
 0.0032137
 0.0032378
 0.0032618
 0.0032859
 0.0033099
 0.0033338
 0.0033578
 0.0033816
 0.0034055
 0.0034293
 0.0034530
 0.0034767
 0.0035003
 0.0035239
 0.0035475
 0.0035710
 0.0035944
 0.0036178
 0.0036411
 0.0036644
 0.0036876
 0.0037108
 0.0037339
 0.0037569
 0.0037799
 0.0038029
 0.0038257
 0.0038486
 0.0038713
 0.0038940
 0.0039166
 0.0039392
 0.0039617
 0.0039842
 0.0040066
 0.0040289
 0.0040512
 0.0040734
 0.0040956
 0.0041177
 0.0041397
 0.0041617
 0.0041836
 0.0042055
 0.0042273
 0.0042490
 0.0042707
 0.0042924
 0.0043140
 0.0043355
 0.0043570
 0.0043785
 0.0043998
 0.0044212
 0.0044425
 0.0044637
 0.0044849
 0.0045060
 0.0045271
 0.0045482
 0.0045692
 0.0045902
 0.0046111
 0.0046320
 0.0046528
 0.0046736
 0.0046944
 0.0047151
 0.0047358
 0.0047565
 0.0047771
 0.0047977
 0.0048183
 0.0048389
 0.0048594
 0.0048799
 0.0049003
 0.0049208
 0.0049412
 0.0049616
 0.0049820
 0.0050024
 0.0050227
 0.0050431
 0.0050634
 0.0050837
 0.0051040
 0.0051243
 0.0051446
 0.0051649
 0.0051852
 0.0052054
 0.0052257
 0.0052460
 0.0052663
 0.0052866
 0.0053069
 0.0053271
 0.0053475
 0.0053678
 0.0053881
 0.0054084
 0.0054288
 0.0054492
 0.0054695
 0.0054900
 0.0055104
 0.0055308
 0.0055513
 0.0055718
 0.0055923
 0.0056129
 0.0056335
 0.0056541
 0.0056748
 0.0056955
 0.0057162
 0.0057370
 0.0057578
 0.0057787
 0.0057996
 0.0058205
 0.0058415
 0.0058625
 0.0058836
 0.0059048
 0.0059260
 0.0059472
 0.0059685
 0.0059899
 0.0060113
 0.0060328
 0.0060544
 0.0060760
 0.0060977
 0.0061194
 0.0061413
 0.0061632
 0.0061851
 0.0062072
 0.0062293
 0.0062515
 0.0062738
 0.0062961
 0.0063186
 0.0063411
 0.0063637
 0.0063864
 0.0064092
 0.0064321
 0.0064551
 0.0064781
 0.0065013
 0.0065245
 0.0065479
 0.0065713
 0.0065949
 0.0066185
 0.0066423
 0.0066661
 0.0066901
 0.0067142
 0.0067384
 0.0067627
 0.0067871
 0.0068116
 0.0068362
 0.0068610
 0.0068858
 0.0069108
 0.0069359
 0.0069612
 0.0069865
 0.0070120
 0.0070376
 0.0070633
 0.0070892
 0.0071152
 0.0071413
 0.0071676
 0.0071939
 0.0072205
 0.0072471
 0.0072739
 0.0073009
 0.0073279
 0.0073551
 0.0073825
 0.0074100
 0.0074376
 0.0074654
 0.0074934
 0.0075215
 0.0075497
 0.0075781
 0.0076066
 0.0076353
 0.0076642
 0.0076932
 0.0077223
 0.0077517
 0.0077811
 0.0078108
 0.0078406
 0.0078705
 0.0079006
 0.0079309
 0.0079614
 0.0079920
 0.0080228
 0.0080537
 0.0080849
 0.0081161
 0.0081476
 0.0081792
 0.0082111
 0.0082430
 0.0082752
 0.0083075
 0.0083400
 0.0083727
 0.0084056
 0.0084387
 0.0084719
 0.0085053
 0.0085389
 0.0085727
 0.0086066
 0.0086408
 0.0086751
 0.0087096
 0.0087443
 0.0087792
 0.0088143
 0.0088496
 0.0088851
 0.0089208
 0.0089566
 0.0089927
 0.0090289
 0.0090653
 0.0091020
 0.0091388
 0.0091758
 0.0092131
 0.0092505
 0.0092881
 0.0093260
 0.0093640
 0.0094022
 0.0094407
 0.0094793
 0.0095181
 0.0095572
 0.0095964
 0.0096359
 0.0096756
 0.0097155
 0.0097555
 0.0097958
 0.0098363
 0.0098770
 0.0099180
 0.0099591
 0.0100005
 0.0100420
 0.0100838
 0.0101258
 0.0101680
 0.0102104
 0.0102530
 0.0102959
 0.0103390
 0.0103823
 0.0104258
 0.0104695
 0.0105134
 0.0105576
 0.0106020
 0.0106466
 0.0106914
 0.0107365
 0.0107817
 0.0108272
 0.0108729
 0.0109189
 0.0109651
 0.0110114
 0.0110581
 0.0111049
 0.0111520
 0.0111993
 0.0112468
 0.0112946
 0.0113426
 0.0113908
 0.0114392
 0.0114879
 0.0115368
 0.0115859
 0.0116353
 0.0116849
 0.0117347
 0.0117848
 0.0118351
 0.0118856
 0.0119364
 0.0119874
 0.0120386
 0.0120901
 0.0121418
 0.0121937
 0.0122459
 0.0122983
 0.0123510
 0.0124039
 0.0124570
 0.0125104
 0.0125640
 0.0126178
 0.0126719
 0.0127262
 0.0127808
 0.0128356
 0.0128907
 0.0129460
 0.0130015
 0.0130573
 0.0131133
 0.0131695
 0.0132261
 0.0132828
 0.0133398
 0.0133970
 0.0134545
 0.0135123
 0.0135702
 0.0136284
 0.0136869
 0.0137456
 0.0138046
 0.0138638
 0.0139233
 0.0139830
 0.0140429
 0.0141031
 0.0141636
 0.0142243
 0.0142852
 0.0143464
 0.0144079
 0.0144696
 0.0145316
 0.0145938
 0.0146562
 0.0147189
 0.0147819
 0.0148451
 0.0149086
 0.0149723
 0.0150363
 0.0151005
 0.0151650
 0.0152298
 0.0152948
 0.0153600
 0.0154255
 0.0154913
 0.0155573
 0.0156236
 0.0156901
 0.0157569
 0.0158240
 0.0158913
 0.0159588
 0.0160267
 0.0160947
 0.0161631
 0.0162317
 0.0163006
 0.0163697
 0.0164391
 0.0165087
 0.0165786
 0.0166488
 0.0167192
 0.0167899
 0.0168609
 0.0169321
 0.0170036
 0.0170753
 0.0171473
 0.0172196
 0.0172921
 0.0173649
 0.0174380
 0.0175114
 0.0175850
 0.0176588
 0.0177330
 0.0178074
 0.0178820
 0.0179570
 0.0180322
 0.0181076
 0.0181834
 0.0182594
 0.0183357
 0.0184122
 0.0184890
 0.0185661
 0.0186435
 0.0187211
 0.0187990
 0.0188772
 0.0189556
 0.0190343
 0.0191133
 0.0191926
 0.0192721
 0.0193519
 0.0194320
 0.0195123
 0.0195930
 0.0196739
 0.0197551
 0.0198365
 0.0199182
 0.0200002
 0.0200825
 0.0201651
 0.0202479
 0.0203311
 0.0204144
 0.0204981
 0.0205821
 0.0206663
 0.0207508
 0.0208356
 0.0209207
 0.0210060
 0.0210917
 0.0211776
 0.0212638
 0.0213503
 0.0214370
 0.0215241
 0.0216114
 0.0216990
 0.0217869
 0.0218751
 0.0219635
 0.0220523
 0.0221413
 0.0222306
 0.0223202
 0.0224101
 0.0225003
 0.0225908
 0.0226815
 0.0227726
 0.0228639
 0.0229555
 0.0230474
 0.0231396
 0.0232321
 0.0233249
 0.0234180
 0.0235113
 0.0236050
 0.0236989
 0.0237932
 0.0238877
 0.0239825
 0.0240777
 0.0241731
 0.0242688
 0.0243648
 0.0244611
 0.0245577
 0.0246546
 0.0247518
 0.0248492
 0.0249470
 0.0250451
 0.0251435
 0.0252422
 0.0253411
 0.0254404
 0.0255400
 0.0256399
 0.0257400
 0.0258405
 0.0259413
 0.0260424
 0.0261438
 0.0262454
 0.0263474
 0.0264497
 0.0265523
 0.0266552
 0.0267584
 0.0268619
 0.0269658
 0.0270699
 0.0271743
 0.0272790
 0.0273841
 0.0274894
 0.0275951
 0.0277011
 0.0278074
 0.0279139
 0.0280208
 0.0281281
 0.0282356
 0.0283434
 0.0284516
 0.0285600
 0.0286688
 0.0287779
 0.0288873
 0.0289970
 0.0291070
 0.0292173
 0.0293280
 0.0294390
 0.0295503
 0.0296619
 0.0297738
 0.0298860
 0.0299986
 0.0301115
 0.0302247
 0.0303382
 0.0304520
 0.0305662
 0.0306806
 0.0307954
 0.0309106
 0.0310260
 0.0311418
 0.0312579
 0.0313743
 0.0314910
 0.0316081
 0.0317254
 0.0318431
 0.0319612
 0.0320795
 0.0321982
 0.0323172
 0.0324366
 0.0325563
 0.0326762
 0.0327966
 0.0329172
 0.0330382
 0.0331595
 0.0332812
 0.0334032
 0.0335255
 0.0336481
 0.0337711
 0.0338944
 0.0340180
 0.0341420
 0.0342663
 0.0343909
 0.0345159
 0.0346412
 0.0347669
 0.0348928
 0.0350192
 0.0351458
 0.0352728
 0.0354001
 0.0355278
 0.0356558
 0.0357842
 0.0359128
 0.0360419
 0.0361712
 0.0363009
 0.0364310
 0.0365614
 0.0366921
 0.0368232
 0.0369546
 0.0370864
 0.0372185
 0.0373509
 0.0374837
 0.0376168
 0.0377503
 0.0378842
 0.0380183
 0.0381529
 0.0382877
 0.0384229
 0.0385585
 0.0386944
 0.0388307
 0.0389673
 0.0391042
 0.0392416
 0.0393792
 0.0395172
 0.0396556
 0.0397943
 0.0399334
 0.0400728
 0.0402125
 0.0403527
 0.0404931
 0.0406340
 0.0407751
 0.0409167
 0.0410586
 0.0412008
 0.0413434
 0.0414864
 0.0416297
 0.0417734
 0.0419174
 0.0420618
 0.0422065
 0.0423516
 0.0424971
 0.0426429
 0.0427891
 0.0429356
 0.0430825
 0.0432297
 0.0433773
 0.0435253
 0.0436737
 0.0438224
 0.0439714
 0.0441208
 0.0442706
 0.0444208
 0.0445713
 0.0447221
 0.0448734
 0.0450250
 0.0451769
 0.0453292
 0.0454819
 0.0456350
 0.0457884
 0.0459422
 0.0460963
 0.0462509
 0.0464057
 0.0465610
 0.0467166
 0.0468726
 0.0470290
 0.0471857
 0.0473428
 0.0475002
 0.0476580
 0.0478162
 0.0479748
 0.0481337
 0.0482930
 0.0484527
 0.0486127
 0.0487731
 0.0489339
 0.0490951
 0.0492566
 0.0494185
 0.0495807
 0.0497434
 0.0499064
 0.0500698
 0.0502335
 0.0503976
 0.0505621
 0.0507270
 0.0508923
 0.0510579
 0.0512239
 0.0513902
 0.0515569
 0.0517241
 0.0518915
 0.0520594
 0.0522276
 0.0523962
 0.0525652
 0.0527346
 0.0529043
 0.0530744
 0.0532449
 0.0534157
 0.0535870
 0.0537586
 0.0539306
 0.0541029
 0.0542756
 0.0544488
 0.0546222
 0.0547961
 0.0549703
 0.0551450
 0.0553200
 0.0554953
 0.0556711
 0.0558472
 0.0560237
 0.0562006
 0.0563778
 0.0565554
 0.0567335
 0.0569118
 0.0570906
 0.0572697
 0.0574493
 0.0576291
 0.0578094
 0.0579901
 0.0581711
 0.0583525
 0.0585343
 0.0587164
 0.0588990
 0.0590819
 0.0592652
 0.0594489
 0.0596329
 0.0598173
 0.0600021
 0.0601873
 0.0603729
 0.0605588
 0.0607451
 0.0609318
 0.0611189
 0.0613063
 0.0614942
 0.0616824
 0.0618709
 0.0620599
 0.0622492
 0.0624389
 0.0626290
 0.0628195
 0.0630103
 0.0632015
 0.0633931
 0.0635851
 0.0637775
 0.0639702
 0.0641633
 0.0643568
 0.0645506
 0.0647448
 0.0649394
 0.0651344
 0.0653298
 0.0655255
 0.0657216
 0.0659181
 0.0661150
 0.0663122
 0.0665098
 0.0667078
 0.0669062
 0.0671049
 0.0673040
 0.0675035
 0.0677033
 0.0679036
 0.0681042
 0.0683051
 0.0685065
 0.0687082
 0.0689103
 0.0691128
 0.0693156
 0.0695188
 0.0697224
 0.0699263
 0.0701307
 0.0703353
 0.0705404
 0.0707459
 0.0709517
 0.0711578
 0.0713644
 0.0715713
 0.0717786
 0.0719862
 0.0721943
 0.0724027
 0.0726114
 0.0728205
 0.0730300
 0.0732399
 0.0734501
 0.0736607
 0.0738717
 0.0740830
 0.0742947
 0.0745068
 0.0747192
 0.0749320
 0.0751451
 0.0753586
 0.0755725
 0.0757868
 0.0760014
 0.0762163
 0.0764317
 0.0766474
 0.0768634
 0.0770798
 0.0772966
 0.0775138
 0.0777313
 0.0779491
 0.0781673
 0.0783859
 0.0786048
 0.0788241
 0.0790438
 0.0792638
 0.0794842
 0.0797049
 0.0799259
 0.0801474
 0.0803692
 0.0805913
 0.0808138
 0.0810366
 0.0812598
 0.0814834
 0.0817073
 0.0819316
 0.0821562
 0.0823811
 0.0826064
 0.0828321
 0.0830581
 0.0832845
 0.0835112
 0.0837382
 0.0839656
 0.0841934
 0.0844215
 0.0846499
 0.0848787
 0.0851078
 0.0853373
 0.0855671
 0.0857973
 0.0860278
 0.0862586
 0.0864898
 0.0867213
 0.0869532
 0.0871854
 0.0874180
 0.0876509
 0.0878841
 0.0881176
 0.0883515
 0.0885858
 0.0888204
 0.0890553
 0.0892905
 0.0895261
 0.0897620
 0.0899982
 0.0902348
 0.0904717
 0.0907089
 0.0909465
 0.0911844
 0.0914226
 0.0916612
 0.0919001
 0.0921393
 0.0923788
 0.0926187
 0.0928589
 0.0930994
 0.0933402
 0.0935814
 0.0938229
 0.0940647
 0.0943068
 0.0945492
 0.0947920
 0.0950351
 0.0952785
 0.0955222
 0.0957662
 0.0960106
 0.0962553
 0.0965003
 0.0967456
 0.0969912
 0.0972371
 0.0974833
 0.0977299
 0.0979767
 0.0982239
 0.0984714
 0.0987192
 0.0989673
 0.0992157
 0.0994644
 0.0997134
 0.0999628
 0.1002124
 0.1004623
 0.1007125
 0.1009631
 0.1012139
 0.1014651
 0.1017165
 0.1019682
 0.1022203
 0.1024726
 0.1027252
 0.1029781
 0.1032314
 0.1034849
 0.1037387
 0.1039928
 0.1042472
 0.1045019
 0.1047568
 0.1050121
 0.1052676
 0.1055235
 0.1057796
 0.1060360
 0.1062927
 0.1065497
 0.1068070
 0.1070645
 0.1073224
 0.1075805
 0.1078389
 0.1080976
 0.1083565
 0.1086157
 0.1088753
 0.1091350
 0.1093951
 0.1096554
 0.1099161
 0.1101769
 0.1104381
 0.1106995
 0.1109612
 0.1112232
 0.1114854
 0.1117479
 0.1120107
 0.1122737
 0.1125371
 0.1128006
 0.1130645
 0.1133286
 0.1135929
 0.1138575
 0.1141224
 0.1143876
 0.1146530
 0.1149186
 0.1151845
 0.1154507
 0.1157171
 0.1159838
 0.1162507
 0.1165179
 0.1167853
 0.1170530
 0.1173210
 0.1175891
 0.1178576
 0.1181263
 0.1183952
 0.1186644
 0.1189338
 0.1192034
 0.1194733
 0.1197435
 0.1200139
 0.1202845
 0.1205553
 0.1208264
 0.1210978
 0.1213694
 0.1216412
 0.1219132
 0.1221855
 0.1224580
 0.1227307
 0.1230037
 0.1232769
 0.1235504
 0.1238240
 0.1240979
 0.1243720
 0.1246463
 0.1249209
 0.1251957
 0.1254707
 0.1257459
 0.1260214
 0.1262971
 0.1265729
 0.1268491
 0.1271254
 0.1274019
 0.1276787
 0.1279556
 0.1282328
 0.1285102
 0.1287878
 0.1290656
 0.1293437
 0.1296219
 0.1299003
 0.1301790
 0.1304578
 0.1307369
 0.1310162
 0.1312956
 0.1315753
 0.1318552
 0.1321352
 0.1324155
 0.1326960
 0.1329766
 0.1332575
 0.1335386
 0.1338198
 0.1341013
 0.1343829
 0.1346647
 0.1349467
 0.1352289
 0.1355113
 0.1357939
 0.1360767
 0.1363597
 0.1366428
 0.1369261
 0.1372097
 0.1374933
 0.1377772
 0.1380613
 0.1383455
 0.1386299
 0.1389145
 0.1391993
 0.1394842
 0.1397694
 0.1400547
 0.1403401
 0.1406258
 0.1409116
 0.1411976
 0.1414837
 0.1417700
 0.1420565
 0.1423432
 0.1426300
 0.1429170
 0.1432041
 0.1434914
 0.1437789
 0.1440665
 0.1443543
 0.1446423
 0.1449304
 0.1452187
 0.1455071
 0.1457957
 0.1460844
 0.1463733
 0.1466623
 0.1469515
 0.1472409
 0.1475304
 0.1478200
 0.1481098
 0.1483998
 0.1486898
 0.1489801
 0.1492705
 0.1495610
 0.1498516
 0.1501424
 0.1504334
 0.1507245
 0.1510157
 0.1513071
 0.1515986
 0.1518902
 0.1521820
 0.1524739
 0.1527659
 0.1530581
 0.1533504
 0.1536428
 0.1539354
 0.1542281
 0.1545209
 0.1548139
 0.1551070
 0.1554002
 0.1556935
 0.1559870
 0.1562805
 0.1565742
 0.1568681
 0.1571620
 0.1574561
 0.1577502
 0.1580445
 0.1583390
 0.1586335
 0.1589281
 0.1592229
 0.1595178
 0.1598128
 0.1601079
 0.1604031
 0.1606984
 0.1609939
 0.1612894
 0.1615850
 0.1618808
 0.1621767
 0.1624726
 0.1627687
 0.1630649
 0.1633612
 0.1636575
 0.1639540
 0.1642506
 0.1645473
 0.1648441
 0.1651410
 0.1654379
 0.1657350
 0.1660322
 0.1663294
 0.1666268
 0.1669242
 0.1672218
 0.1675194
 0.1678171
 0.1681150
 0.1684129
 0.1687109
 0.1690089
 0.1693071
 0.1696053
 0.1699037
 0.1702021
 0.1705006
 0.1707992
 0.1710979
 0.1713966
 0.1716954
 0.1719944
 0.1722933
 0.1725924
 0.1728916
 0.1731908
 0.1734901
 0.1737895
 0.1740889
 0.1743884
 0.1746880
 0.1749877
 0.1752874
 0.1755872
 0.1758871
 0.1761871
 0.1764871
 0.1767872
 0.1770873
 0.1773875
 0.1776878
 0.1779881
 0.1782886
 0.1785890
 0.1788896
 0.1791902
 0.1794908
 0.1797916
 0.1800923
 0.1803932
 0.1806941
 0.1809950
 0.1812961
 0.1815971
 0.1818982
 0.1821994
 0.1825007
 0.1828020
 0.1831033
 0.1834047
 0.1837061
 0.1840076
 0.1843092
 0.1846108
 0.1849124
 0.1852141
 0.1855159
 0.1858177
 0.1861195
 0.1864214
 0.1867233
 0.1870253
 0.1873273
 0.1876294
 0.1879315
 0.1882336
 0.1885358
 0.1888381
 0.1891403
 0.1894426
 0.1897450
 0.1900474
 0.1903498
 0.1906523
 0.1909548
 0.1912573
 0.1915599
 0.1918625
 0.1921651
 0.1924678
 0.1927705
 0.1930732
 0.1933760
 0.1936788
 0.1939816
 0.1942845
 0.1945874
 0.1948903
 0.1951933
 0.1954963
 0.1957993
 0.1961023
 0.1964054
 0.1967084
 0.1970116
 0.1973147
 0.1976179
 0.1979210
 0.1982243
 0.1985275
 0.1988307
 0.1991340
 0.1994373
 0.1997406
 0.2000440
 0.2003473
 0.2006507
 0.2009541
 0.2012575
 0.2015609
 0.2018644
 0.2021679
 0.2024713
 0.2027748
 0.2030784
 0.2033819
 0.2036854
 0.2039890
 0.2042926
 0.2045961
 0.2048997
 0.2052033
 0.2055070
 0.2058106
 0.2061142
 0.2064179
 0.2067216
 0.2070252
 0.2073289
 0.2076326
 0.2079363
 0.2082400
 0.2085437
 0.2088474
 0.2091512
 0.2094549
 0.2097586
 0.2100624
 0.2103661
 0.2106699
 0.2109736
 0.2112774
 0.2115812
 0.2118849
 0.2121887
 0.2124925
 0.2127963
 0.2131000
 0.2134038
 0.2137076
 0.2140114
 0.2143151
 0.2146189
 0.2149227
 0.2152265
 0.2155302
 0.2158340
 0.2161378
 0.2164416
 0.2167453
 0.2170491
 0.2173529
 0.2176566
 0.2179604
 0.2182641
 0.2185678
 0.2188716
 0.2191753
 0.2194790
 0.2197828
 0.2200865
 0.2203902
 0.2206939
 0.2209976
 0.2213013
 0.2216050
 0.2219086
 0.2222123
 0.2225159
 0.2228196
 0.2231232
 0.2234269
 0.2237305
 0.2240341
 0.2243377
 0.2246413
 0.2249448
 0.2252484
 0.2255520
 0.2258555
 0.2261590
 0.2264626
 0.2267661
 0.2270696
 0.2273730
 0.2276765
 0.2279800
 0.2282834
 0.2285868
 0.2288903
 0.2291937
 0.2294971
 0.2298004
 0.2301038
 0.2304071
 0.2307105
 0.2310138
 0.2313171
 0.2316204
 0.2319236
 0.2322269
 0.2325301
 0.2328333
 0.2331365
 0.2334397
 0.2337429
 0.2340461
 0.2343492
 0.2346523
 0.2349554
 0.2352585
 0.2355616
 0.2358646
 0.2361676
 0.2364707
 0.2367737
 0.2370766
 0.2373796
 0.2376825
 0.2379854
 0.2382883
 0.2385912
 0.2388941
 0.2391969
 0.2394997
 0.2398025
 0.2401053
 0.2404081
 0.2407108
 0.2410136
 0.2413163
 0.2416189
 0.2419216
 0.2422242
 0.2425269
 0.2428295
 0.2431320
 0.2434346
 0.2437371
 0.2440397
 0.2443421
 0.2446446
 0.2449471
 0.2452495
 0.2455519
 0.2458543
 0.2461567
 0.2464590
 0.2467613
 0.2470636
 0.2473659
 0.2476682
 0.2479704
 0.2482726
 0.2485748
 0.2488770
 0.2491791
 0.2494812
 0.2497833
 0.2500854
 0.2503875
 0.2506895
 0.2509915
 0.2512935
 0.2515955
 0.2518974
 0.2521993
 0.2525012
 0.2528031
 0.2531049
 0.2534068
 0.2537086
 0.2540104
 0.2543121
 0.2546139
 0.2549156
 0.2552173
 0.2555189
 0.2558206
 0.2561222
 0.2564238
 0.2567254
 0.2570269
 0.2573285
 0.2576300
 0.2579315
 0.2582329
 0.2585344
 0.2588358
 0.2591372
 0.2594386
 0.2597399
 0.2600412
 0.2603426
 0.2606438
 0.2609451
 0.2612463
 0.2615475
 0.2618487
 0.2621499
 0.2624511
 0.2627522
 0.2630533
 0.2633544
 0.2636554
 0.2639565
 0.2642575
 0.2645585
 0.2648594
 0.2651604
 0.2654613
 0.2657622
 0.2660631
 0.2663640
 0.2666648
 0.2669656
 0.2672664
 0.2675672
 0.2678679
 0.2681687
 0.2684694
 0.2687701
 0.2690707
 0.2693714
 0.2696720
 0.2699726
 0.2702732
 0.2705738
 0.2708743
 0.2711748
 0.2714753
 0.2717758
 0.2720762
 0.2723767
 0.2726771
 0.2729775
 0.2732779
 0.2735782
 0.2738786
 0.2741789
 0.2744792
 0.2747795
 0.2750797
 0.2753800
 0.2756802
 0.2759804
 0.2762806
 0.2765807
 0.2768809
 0.2771810
 0.2774811
 0.2777812
 0.2780813
 0.2783813
 0.2786813
 0.2789814
 0.2792813
 0.2795813
 0.2798813
 0.2801812
 0.2804811
 0.2807811
 0.2810809
 0.2813808
 0.2816807
 0.2819805
 0.2822803
 0.2825801
 0.2828799
 0.2831797
 0.2834794
 0.2837792
 0.2840789
 0.2843786
 0.2846783
 0.2849779
 0.2852776
 0.2855772
 0.2858769
 0.2861765
 0.2864761
 0.2867756
 0.2870752
 0.2873748
 0.2876743
 0.2879738
 0.2882733
 0.2885728
 0.2888723
 0.2891717
 0.2894712
 0.2897706
 0.2900700
 0.2903695
 0.2906688
 0.2909682
 0.2912676
 0.2915669
 0.2918663
 0.2921656
 0.2924649
 0.2927642
 0.2930635
 0.2933628
 0.2936621
 0.2939613
 0.2942606
 0.2945598
 0.2948590
 0.2951582
 0.2954574
 0.2957566
 0.2960558
 0.2963549
 0.2966541
 0.2969532
 0.2972523
 0.2975515
 0.2978506
 0.2981497
 0.2984488
 0.2987479
 0.2990469
 0.2993460
 0.2996450
 0.2999441
 0.3002431
 0.3005421
 0.3008412
 0.3011402
 0.3014392
 0.3017382
 0.3020371
 0.3023361
 0.3026351
 0.3029340
 0.3032330
 0.3035319
 0.3038309
 0.3041298
 0.3044287
 0.3047276
 0.3050265
 0.3053254
 0.3056243
 0.3059232
 0.3062221
 0.3065210
 0.3068199
 0.3071187
 0.3074176
 0.3077164
 0.3080153
 0.3083141
 0.3086130
 0.3089118
 0.3092106
 0.3095095
 0.3098083
 0.3101071
 0.3104059
 0.3107047
 0.3110035
 0.3113023
 0.3116011
 0.3118999
 0.3121987
 0.3124975
 0.3127963
 0.3130950
 0.3133938
 0.3136926
 0.3139914
 0.3142901
 0.3145889
 0.3148877
 0.3151864
 0.3154852
 0.3157839
 0.3160827
 0.3163815
 0.3166802
 0.3169790
 0.3172777
 0.3175765
 0.3178752
 0.3181740
 0.3184727
 0.3187715
 0.3190702
 0.3193689
 0.3196677
 0.3199664
 0.3202652
 0.3205639
 0.3208627
 0.3211614
 0.3214602
 0.3217589
 0.3220577
 0.3223564
 0.3226552
 0.3229539
 0.3232527
 0.3235514
 0.3238502
 0.3241490
 0.3244477
 0.3247465
 0.3250453
 0.3253440
 0.3256428
 0.3259416
 0.3262403
 0.3265391
 0.3268379
 0.3271367
 0.3274355
 0.3277343
 0.3280330
 0.3283318
 0.3286306
 0.3289294
 0.3292282
 0.3295271
 0.3298259
 0.3301247
 0.3304235
 0.3307223
 0.3310212
 0.3313200
 0.3316188
 0.3319177
 0.3322165
 0.3325154
 0.3328142
 0.3331131
 0.3334120
 0.3337108
 0.3340097
 0.3343086
 0.3346075
 0.3349064
 0.3352053
 0.3355042
 0.3358031
 0.3361020
 0.3364009
 0.3366998
 0.3369988
 0.3372977
 0.3375966
 0.3378956
 0.3381946
 0.3384935
 0.3387925
 0.3390915
 0.3393904
 0.3396894
 0.3399884
 0.3402874
 0.3405864
 0.3408855
 0.3411845
 0.3414835
 0.3417826
 0.3420816
 0.3423807
 0.3426797
 0.3429788
 0.3432779
 0.3435769
 0.3438760
 0.3441751
 0.3444742
 0.3447733
 0.3450725
 0.3453716
 0.3456707
 0.3459699
 0.3462690
 0.3465682
 0.3468674
 0.3471665
 0.3474657
 0.3477649
 0.3480641
 0.3483633
 0.3486626
 0.3489618
 0.3492610
 0.3495603
 0.3498595
 0.3501588
 0.3504581
 0.3507573
 0.3510566
 0.3513559
 0.3516552
 0.3519545
 0.3522539
 0.3525532
 0.3528525
 0.3531519
 0.3534513
 0.3537506
 0.3540500
 0.3543494
 0.3546488
 0.3549482
 0.3552476
 0.3555470
 0.3558465
 0.3561459
 0.3564454
 0.3567448
 0.3570443
 0.3573438
 0.3576433
 0.3579428
 0.3582423
 0.3585418
 0.3588413
 0.3591409
 0.3594404
 0.3597400
 0.3600395
 0.3603391
 0.3606387
 0.3609383
 0.3612379
 0.3615375
 0.3618371
 0.3621367
 0.3624364
 0.3627360
 0.3630357
 0.3633354
 0.3636350
 0.3639347
 0.3642344
 0.3645341
 0.3648339
 0.3651336
 0.3654333
 0.3657331
 0.3660328
 0.3663326
 0.3666323
 0.3669321
 0.3672319
 0.3675317
 0.3678315
 0.3681313
 0.3684312
 0.3687310
 0.3690309
 0.3693307
 0.3696306
 0.3699304
 0.3702303
 0.3705302
 0.3708301
 0.3711300
 0.3714299
 0.3717299
 0.3720298
 0.3723298
 0.3726297
 0.3729297
 0.3732296
 0.3735296
 0.3738296
 0.3741296
 0.3744296
 0.3747296
 0.3750296
 0.3753297
 0.3756297
 0.3759298
 0.3762298
 0.3765299
 0.3768300
 0.3771300
 0.3774301
 0.3777302
 0.3780303
 0.3783304
 0.3786306
 0.3789307
 0.3792308
 0.3795310
 0.3798311
 0.3801313
 0.3804315
 0.3807316
 0.3810318
 0.3813320
 0.3816322
 0.3819324
 0.3822326
 0.3825328
 0.3828331
 0.3831333
 0.3834335
 0.3837338
 0.3840340
 0.3843343
 0.3846345
 0.3849348
 0.3852351
 0.3855354
 0.3858357
 0.3861360
 0.3864363
 0.3867366
 0.3870369
 0.3873372
 0.3876376
 0.3879379
 0.3882382
 0.3885386
 0.3888389
 0.3891393
 0.3894397
 0.3897400
 0.3900404
 0.3903408
 0.3906412
 0.3909416
 0.3912419
 0.3915423
 0.3918427
 0.3921432
 0.3924436
 0.3927440
 0.3930444
 0.3933448
 0.3936453
 0.3939457
 0.3942461
 0.3945466
 0.3948470
 0.3951475
 0.3954479
 0.3957484
 0.3960489
 0.3963493
 0.3966498
 0.3969503
 0.3972507
 0.3975512
 0.3978517
 0.3981522
 0.3984527
 0.3987531
 0.3990536
 0.3993541
 0.3996546
 0.3999551
 0.4002556
 0.4005561
 0.4008566
 0.4011571
 0.4014577
 0.4017582
 0.4020587
 0.4023592
 0.4026597
 0.4029602
 0.4032607
 0.4035612
 0.4038618
 0.4041623
 0.4044628
 0.4047633
 0.4050638
 0.4053644
 0.4056649
 0.4059654
 0.4062659
 0.4065665
 0.4068670
 0.4071675
 0.4074680
 0.4077685
 0.4080691
 0.4083696
 0.4086701
 0.4089706
 0.4092711
 0.4095716
 0.4098722
 0.4101727
 0.4104732
 0.4107737
 0.4110742
 0.4113747
 0.4116752
 0.4119757
 0.4122762
 0.4125767
 0.4128772
 0.4131777
 0.4134782
 0.4137787
 0.4140791
 0.4143796
 0.4146801
 0.4149806
 0.4152810
 0.4155815
 0.4158820
 0.4161824
 0.4164829
 0.4167833
 0.4170838
 0.4173842
 0.4176847
 0.4179851
 0.4182855
 0.4185860
 0.4188864
 0.4191868
 0.4194872
 0.4197876
 0.4200880
 0.4203884
 0.4206888
 0.4209892
 0.4212896
 0.4215899
 0.4218903
 0.4221907
 0.4224910
 0.4227914
 0.4230917
 0.4233920
 0.4236924
 0.4239927
 0.4242930
 0.4245933
 0.4248936
 0.4251939
 0.4254942
 0.4257945
 0.4260948
 0.4263950
 0.4266953
 0.4269955
 0.4272958
 0.4275960
 0.4278962
 0.4281964
 0.4284966
 0.4287968
 0.4290970
